icons/account.svg

<svg width="20" height="20" fill="none" version="1.1" viewBox="0 0 20 20" xmlns="http://www.w3.org/2000/svg"><g transform="matrix(1.0871 0 0 1.0871 .22485 .21635)"><path d="m8.9922 0c-1.7474 0.00332-3.4561 0.51471-4.918 1.4719-1.4619 0.95717-2.6139 2.3188-3.3157 3.9191-0.70178 1.6003-0.92306 3.3701-0.63688 5.0938 0.28618 1.7238 1.0675 3.3272 2.2487 4.6148 0.84365 0.9145 1.8676 1.6443 3.0072 2.1435 1.1397 0.4992 2.3704 0.7569 3.6146 0.7569s2.4749-0.2577 3.6146-0.7569 2.1636-1.229 3.0072-2.1435c1.1813-1.2876 1.9626-2.891 2.2487-4.6148 0.2862-1.7238 0.0649-3.4936-0.6368-5.0938-0.7018-1.6003-1.8538-2.9619-3.3157-3.9191-1.4619-0.95718-3.1706-1.4686-4.918-1.4719zm0 16.217c-1.8663-0.0029-3.6588-0.7295-5.0002-2.0271 0.40726-0.9915 1.1001-1.8395 1.9904-2.4363 0.89032-0.5967 1.938-0.9154 3.0098-0.9154 1.0718 0 2.1195 0.3187 3.0098 0.9154 0.8903 0.5968 1.5831 1.4448 1.9904 2.4363-1.3414 1.2976-3.1339 2.0242-5.0002 2.0271zm-1.8019-9.0094c0-0.35638 0.10567-0.70475 0.30367-1.0011 0.19799-0.29632 0.4794-0.52727 0.80865-0.66364 0.32924-0.13638 0.69154-0.17207 1.0411-0.10254 0.34952 0.06952 0.67057 0.24114 0.92257 0.49313 0.252 0.252 0.4236 0.57306 0.4931 0.92258 0.0696 0.34953 0.0339 0.71182-0.1025 1.0411s-0.3673 0.61066-0.66364 0.80865c-0.29631 0.19799-0.64469 0.30367-1.0011 0.30367-0.47788 0-0.93619-0.18984-1.2741-0.52775-0.33791-0.33792-0.52775-0.79623-0.52775-1.2741zm8.0273 5.4056c-0.8049-1.3768-2.0438-2.4478-3.5226-3.0451 0.4587-0.52015 0.7576-1.1616 0.8608-1.8474 0.1032-0.6858 0.0063-1.3868-0.279-2.0189-0.2854-0.63211-0.7471-1.1684-1.3297-1.5447-0.5826-0.37623-1.2614-0.57635-1.9549-0.57635s-1.3723 0.20012-1.9549 0.57635c-0.58261 0.37622-1.0443 0.91256-1.3296 1.5447s-0.38223 1.3331-0.27904 2.0189c0.1032 0.68581 0.40209 1.3273 0.86082 1.8474-1.4788 0.59731-2.7177 1.6683-3.5226 3.0451-0.64152-1.0927-0.98047-2.3366-0.98202-3.6037 0-1.9115 0.75935-3.7448 2.111-5.0964 1.3517-1.3517 3.1849-2.111 5.0964-2.111 1.9115 0 3.7448 0.75936 5.0964 2.111 1.3517 1.3516 2.111 3.1849 2.111 5.0964-0.0015 1.2671-0.3405 2.511-0.982 3.6037z" fill="#000"/></g></svg>

<svg width="18" height="18" viewBox="0 0 18 18" fill="none" xmlns="http://www.w3.org/2000/svg">
<path d="M8.9922 0C7.24482 0.00331996 5.53612 0.514712 4.07422 1.47189C2.61232 2.42906 1.46032 3.7907 0.758536 5.39096C0.0567519 6.99122 -0.164526 8.76103 0.121655 10.4848C0.407836 12.2086 1.18912 13.812 2.37036 15.0996C3.21401 16.0141 4.23793 16.7439 5.37761 17.2431C6.51728 17.7423 7.748 18 8.9922 18C10.2364 18 11.4671 17.7423 12.6068 17.2431C13.7465 16.7439 14.7704 16.0141 15.614 15.0996C16.7953 13.812 17.5766 12.2086 17.8627 10.4848C18.1489 8.76103 17.9276 6.99122 17.2259 5.39096C16.5241 3.7907 15.3721 2.42906 13.9102 1.47189C12.4483 0.514712 10.7396 0.00331996 8.9922 0ZM8.9922 16.2168C7.12589 16.2139 5.33344 15.4873 3.99203 14.1897C4.39929 13.1982 5.0921 12.3502 5.98242 11.7534C6.87274 11.1567 7.92037 10.838 8.9922 10.838C10.064 10.838 11.1117 11.1567 12.002 11.7534C12.8923 12.3502 13.5851 13.1982 13.9924 14.1897C12.651 15.4873 10.8585 16.2139 8.9922 16.2168ZM7.19034 7.20745C7.19034 6.85107 7.29601 6.5027 7.49401 6.20639C7.692 5.91007 7.97341 5.67912 8.30266 5.54275C8.6319 5.40637 8.9942 5.37068 9.34373 5.44021C9.69325 5.50973 10.0143 5.68135 10.2663 5.93334C10.5183 6.18534 10.6899 6.5064 10.7594 6.85592C10.829 7.20545 10.7933 7.56774 10.6569 7.89699C10.5205 8.22624 10.2896 8.50765 9.99326 8.70564C9.69695 8.90363 9.34857 9.00931 8.9922 9.00931C8.51432 9.00931 8.05601 8.81947 7.71809 8.48156C7.38018 8.14364 7.19034 7.68533 7.19034 7.20745ZM15.2176 12.613C14.4127 11.2362 13.1738 10.1652 11.695 9.56789C12.1537 9.04774 12.4526 8.40628 12.5558 7.72047C12.659 7.03467 12.5621 6.33365 12.2768 5.70154C11.9914 5.06943 11.5297 4.53309 10.9471 4.15687C10.3645 3.78064 9.68573 3.58052 8.9922 3.58052C8.29867 3.58052 7.61988 3.78064 7.03726 4.15687C6.45465 4.53309 5.99297 5.06943 5.70763 5.70154C5.42229 6.33365 5.3254 7.03467 5.42859 7.72047C5.53179 8.40628 5.83068 9.04774 6.28941 9.56789C4.81062 10.1652 3.57172 11.2362 2.76677 12.613C2.12525 11.5203 1.7863 10.2764 1.78475 9.00931C1.78475 7.09778 2.5441 5.26453 3.89576 3.91288C5.24742 2.56122 7.08067 1.80186 8.9922 1.80186C10.9037 1.80186 12.737 2.56122 14.0886 3.91288C15.4403 5.26453 16.1996 7.09778 16.1996 9.00931C16.1981 10.2764 15.8591 11.5203 15.2176 12.613Z" fill="black"/>
</svg>
